X: 30509
T: Oliver's
R: waltz
M: 3/4
K: Dmixolydian
|:A2|D4FG|A4 de|{e}f4d2|A4d2|c4A2|G4 FG|A4 F2|E4 A2||
D4FG|A4 de|{e}f4d2|A4 d2|c4A2|G4 EA|1 RD6|D4:|2 RD6|D4 de||
|:f4d2|A4 de|ef fe fd|A4Rf2|e4 ef|{f}J g2e2 {g}ed|e2{g}e2 f/e/f/d/|A4 de||
J{e} f4d2|A4 de|ef fe fd|A4d2|c4 A2|G4 EA|1 RD6|D4 de:|2 RD6|D4||

